icons/mobile/24/svg/logo-safari-24.svg

<svg width="24" height="24" viewBox="0 0 24 24" fill="none" xmlns="http://www.w3.org/2000/svg">
<path fill-rule="evenodd" clip-rule="evenodd" d="M15.1182 7.16406C15.5941 6.93269 16.2183 6.90805 16.6553 7.35156C17.0834 7.78646 17.0625 8.40202 16.8418 8.86914L16.8379 8.87695L14.5342 13.6074L14.5264 13.623C14.3293 14.0051 14.0356 14.3199 13.6104 14.5225L13.6113 14.5234L8.87305 16.8438L8.87012 16.8457C8.38488 17.0807 7.77602 17.0705 7.35449 16.6494C6.93308 16.228 6.92331 15.6191 7.1582 15.1338L7.15918 15.1309L9.47949 10.3906L9.48145 10.3857C9.66428 10.0188 9.90999 9.74521 10.2461 9.54785L10.3955 9.46777L15.1182 7.16406ZM10.9248 10.9023C10.8904 10.9377 10.8589 10.9852 10.8242 11.0547L8.78711 15.2148L12.9521 13.1758L12.9629 13.1709C13.0146 13.1466 13.0565 13.1154 13.0957 13.0742L10.9248 10.9023Z" fill="black"/>
<path fill-rule="evenodd" clip-rule="evenodd" d="M12 2C17.523 2 22 6.477 22 12C22 17.523 17.523 22 12 22C6.477 22 2 17.523 2 12C2 6.477 6.477 2 12 2ZM12 3.75C7.451 3.75 3.75 7.451 3.75 12C3.75 16.549 7.451 20.25 12 20.25C16.549 20.25 20.25 16.549 20.25 12C20.25 7.451 16.549 3.75 12 3.75Z" fill="black"/>
</svg>

<!-- This Source Code Form is subject to the terms of the Mozilla Public
   - License, v. 2.0. If a copy of the MPL was not distributed with this
   - file, You can obtain one at http://mozilla.org/MPL/2.0/. -->
<svg xmlns="http://www.w3.org/2000/svg" width="24" height="24" fill="none" viewBox="0 0 24 24">
    <path fill="#000" fill-rule="evenodd" d="M15.118 7.164c.476-.231 1.1-.256 1.537.188.428.434.407 1.05.187 1.517l-.004.008-2.304 4.73-.008.016a1.96 1.96 0 0 1-.916.9h.001l-4.738 2.32-.003.003c-.485.235-1.094.224-1.516-.197-.42-.421-.43-1.03-.196-1.515l.001-.003 2.32-4.74.002-.005c.183-.367.429-.64.765-.838l.15-.08zm-4.193 3.738a.6.6 0 0 0-.1.153l-2.038 4.16 4.165-2.04.01-.004a.4.4 0 0 0 .134-.097z" clip-rule="evenodd" />
    <path fill="#000" fill-rule="evenodd" d="M12 2c5.523 0 10 4.477 10 10s-4.477 10-10 10S2 17.523 2 12 6.477 2 12 2m0 1.75c-4.549 0-8.25 3.701-8.25 8.25s3.701 8.25 8.25 8.25 8.25-3.701 8.25-8.25S16.549 3.75 12 3.75" clip-rule="evenodd" />
</svg>
